X: 15228
T: Girl I Left Behind Me, The
R: polka
M: 2/4
K: Gmajor
|:g/f/|ec BA|BG EF|G>A G/A/B/c/|d>B gf/g/|
ec BA|BE E/F/G/A/|B/A/G/F/ EF|G2 G:|
|:e|ef gf/e/|fB Bd|ef g/f/e/d/|e>f gf/g/|
ec BA|BE E/F/G/>A/|B/A/G/F/ EF|G2 G||
|:B/c/|dB gf/g/|dB ba/g/|f/e/d/c/ B/A/G/F/|E/G/F/A/ G:|

